X: 1
T: O'Donnell Abu
Z: ceolachan
S: https://thesession.org/tunes/7309#setting7309
R: barndance
M: 4/4
L: 1/8
K: Dmaj
D2 FG A2 FA | f2 dB A2 GF | E2 E>F G2 FE | D2 FG A4 |
D2 FG A2 FA | f2 dB A2 GF | E2 e>d cA/A/Bc | d2 d>c dA/B/ c/d/e/=f/ ||
|: f2 fe dB A2 | d2 dB AF D2 | G2 BG F2 AF | E2 E>F EGFE |
D2 FG A2 FA | f2 dB A2 GF | E2 e>d cA/A/Bc |[1 d2 d>c dA/B/ c/d/e/=f/ :|[2 d2 d>c d4 |]
